X:27
T: LASS DOCH MEINE JUGEND
N: E1023
O: opa, Mitteleuropa, Deutschland, Bayern
R: Tanz - Lied, Walzer
M: 3/4
L: 1/8
K: G
 | G2B2BB | B2d2
GG | A2c2F2 | A2G2z2 |
A2F2d2 | AGFED2 |
A2F2d2 | AGFED2 |
G2B2BB | B2d2
GG | A2c2F2 | A2G2z2

@@@ Tune index: 4711
